X: 28355
T: Muineira De Casu
R: jig
M: 6/8
K: Amixolydian
|:Acd|efe dcd|ecA Acd|efe dcB|c2A Acd|
efe dcd|ecA Acd|efe dcB|A3:|
|:agf|ecf ecd|ecA Acd|efe dcB|c2A agf|
ecf ecd|ecA Acd|efe dcB|A3:|
|:ABc|d3 dcd|ecA ABc|d3 dcB|c2A ABc|
d3 dcd|ecA ABc|efe dcB|A3:|

